X:72 
T:Josephine Marsh's (reel) 
D:"The Killavil Sessions"
F:file ID mvbt2/072jos_m
Z:bill@capeirish.com
N:This is named for the Clare box player. I don't know 
if she composed this or not.
Q:180
L:1/8
M:4/4
R:reel
K:D
F|B2 AF BFAF|E2 FD EFDB,|A,D D2 A,DFA|B3c dfec|
"5"B2 AF BFAF|E2 FD EFDB,|A,D D2 B,DGB|Adfe d3 :|
z|"9"fded fded|BedB ADFB|A2 FB ABdf|edef e4|
[1"13"fded fded|BedB ADFB|A2 FB ABdf|edef d3:|
[2"13a"fedc d3e|BcdB AFDB,|A,D D2 B,DGB|Adfe Hd4|]

